X: 1668
T: Sandalım Geliyor Varda
C: (Anonim)
O: Turkey
F: http://compmusic.upf.edu/node/140
N: hicaz--turku--sofyan--sandalim_geliyor--
N: makam= hicaz
N: form= turku
N: usul= sofyan = 4/4
M: 4/4
L: 1/16
K: C _7/8B ^f ^c 
Q: 1/4=90
%%MIDI tuningsystem comma53
B2c2 B2c2 B2c2 B2A2  | A4 A2A2 A4 B4  | \
w:  ARANAĞME  |   | 
A2c2 B2c2 B2c2 B2A2  | 
w:   | 
d4 d2c2 B2BA A4  | B2c2 B2c2 B2c2 B2A2  | \
w:   |  ARANAĞME  | 
A4 A2A2 A4 B4  | A2c2 B2c2 B2c2 B2A2  | 
w:   |   | 
d4 d2c2 B2BA A2Bc  | d4 c2d2 d4 d2c2  | \
w:   |  *  San da lım  ge  | 
e3d d3c B2BA A4  | 
w:  li *  yor  *  var *  *  da    | 
z4 B2c2 B4 c4  | d4 d2c2 B2BA A2Bc  | \
w:  Ve fa  ol maz   |  hiç bir  *  yar *  *  da   SAZ  | 
d4 c2d2 d4 d2c2  | e3d d3c B2BA A4  | 
w:  *  San da lım  ge  |  li *  yor  *  var *  *  da    | 
z4 B2c2 B4 c4  | d4 d2c2 cBBA A4  | B2c2 B2c2 B2c2 B2A2  | 
w:  Ve fa  ol maz   |  hiç bir  *  yar *  *  *  da    |  A man_ i ki  tel  | 
A4 A2A2 A4 B4  | A2c2 B2c2 B2c2 B2A2  | \
w:  lim  si ya  san dal    |  Ca nım_ i ki  tel  | 
d4 d2c2 B2BA A4  | B2c2 B2c2 B2c2 B2A2  | 
w:  lim  si ya  san *  *  dal    |  A man_ i ki  tel  | 
A4 A2A2 A4 B4  | A2c2 B2c2 B2c2 B2A2  | \
w:  lim  si ya  san dal    |  Ca nım_ i ki  tel  | 
d4 d2c2 B2BA A4  | B2c2 B2c2 B2c2 B2A2  | 
w:  lim  si ya  san *  *  dal    |  ARANAĞME  | 
A4 A2A2 A4 B4  | A2c2 B2c2 B2c2 B2A2  | \
w:   |   | 
d4 d2c2 B2BA A4  | B2c2 B2c2 B2c2 B2A2  | 
w:   |  ARANAĞME  | 
A4 A2A2 A4 B4  | A2c2 B2c2 B2c2 B2A2  | \
w:   |   | 
d4 d2c2 B2BA A2Bc  | 
w:   | 
d4 c2d2 d4 d2c2  | e3d d3c B2BA A4  | \
w:  *  San da lım  ge  |  li *  yor  *  var *  *  da    | 
z4 B2c2 B4 c4  | d4 d2c2 B2BA A2Bc  | 
w:  Ve fa  ol maz   |  hiç bir  *  yar *  *  da   SAZ  | 
d4 c2d2 d4 d2c2  | e3d d3c B2BA A4  | \
w:  *  San da lım  ge  |  li *  yor  *  var *  *  da    | 
z4 B2c2 B4 c4  | d4 d2c2 cBBA A4  | 
w:  Ve fa  ol maz   |  hiç bir  *  yar *  *  *  da    | 
B2c2 B2c2 B2c2 B2A2  | A4 A2A2 A4 B4  | \
w:  A man_ i ki  tel  |  lim  si ya  san dal    | 
A2c2 B2c2 B2c2 B2A2  | 
w:  Ca nım_ i ki  tel  | 
d4 d2c2 B2BA A4  | B2c2 B2c2 B2c2 B2A2  | \
w:  lim  si ya  san *  *  dal    |  A man_ i ki  tel  | 
A4 A2A2 A4 B4  | A2c2 B2c2 B2c2 B2A2  | 
w:  lim  si ya  san dal    |  Ca nım_ i ki  tel  | 
d4 d2c2 B2BA A4  | |


